X:1
T: After Dinner Maggot
N:
C:Jonathan Jensen
S:
A:
O:
R:
M:4/4
K:Em
I:speed 220
%W: A1
% voice 1 (1 lines, 35 notes)
K:Em
M:4/4
L:1/16
E4 E4 |G8 E4 E4 |B8 E4 E4 |e2 f2 g2 f2 e4 B4 |e4 B4 c4 A4 |d2 e2 f2 e2 d4 A4 |d4 A4 B4 G4 |c4 E4 F4 E4 |^D8 B,4 E4 |
%W: A2
% voice 1 (1 lines, 33 notes)
G8 E4 E4 |B8 E4 E4 |e2 f2 g2 f2 e4 B4 |e4 B4 c4 A4 |d2 e2 f2 e2 d4 A4 |d4 A4 B4 G4 |c4 A4 F4 ^d4 |e8 E4 g4 |
%W: B1
% voice 1 (1 lines, 40 notes)
f2 ^d2 B2 d2 f4 g4 |f2 ^d2 B2 d2 f4 g4 |f2 ^d2 B2 d2 e4 B4 |c4 A4 d8 |B2 G2 E2 G2 c4 E4 |^D4 B,4 B4 G2 A2 |B4 g4 g2 f2 e2 ^d2 |e12 g4 |
%W: B2
% voice 1 (1 lines, 39 notes)
f2 ^d2 B2 d2 f4 g4 |f2 ^d2 B2 d2 f4 g4 |f2 ^d2 B2 d2 e4 B4 |c4 A4 d8 |B2 G2 E2 G2 c4 E4 |^D4 B,4 B4 G2 A2 |B4 g4 g2 f2 e2 ^d2 |e8 ||
